ix/finger-cricle_outline.svg

<svg viewBox="0 0 24 24" fill="none" xmlns="http://www.w3.org/2000/svg" height="1em" width="1em">
  <path d="M12 22.75C6.07 22.75 1.25 17.93 1.25 12C1.25 6.07 6.07 1.25 12 1.25C17.93 1.25 22.75 6.07 22.75 12C22.75 17.93 17.93 22.75 12 22.75ZM12 2.75C6.9 2.75 2.75 6.9 2.75 12C2.75 17.1 6.9 21.25 12 21.25C17.1 21.25 21.25 17.1 21.25 12C21.25 6.9 17.1 2.75 12 2.75Z" fill="#292D32"/>
  <path d="M11.9996 15.6299C10.6796 15.6299 9.59961 14.5499 9.59961 13.2299V10.7599C9.59961 9.43989 10.6796 8.35986 11.9996 8.35986C13.3196 8.35986 14.3996 9.43989 14.3996 10.7599V13.2299C14.3996 14.5599 13.3196 15.6299 11.9996 15.6299ZM11.9996 9.86987C11.5096 9.86987 11.0996 10.2699 11.0996 10.7699V13.2399C11.0996 13.7399 11.4996 14.1399 11.9996 14.1399C12.4996 14.1399 12.8996 13.7399 12.8996 13.2399V10.7699C12.8996 10.2699 12.4896 9.86987 11.9996 9.86987Z" fill="#292D32"/>
  <path d="M12 18.8199C8.83 18.8199 6.25 16.2399 6.25 13.0699V10.9299C6.25 7.75993 8.83 5.17993 12 5.17993C14.96 5.17993 17.42 7.39997 17.72 10.34C17.76 10.75 17.46 11.1199 17.05 11.1599C16.64 11.2099 16.27 10.8999 16.23 10.4899C16.01 8.31993 14.19 6.67993 12 6.67993C9.66 6.67993 7.75 8.58993 7.75 10.9299V13.0699C7.75 15.4099 9.66 17.3199 12 17.3199C14.2 17.3199 16.06 15.5999 16.24 13.4099C16.27 12.9999 16.63 12.6899 17.05 12.7199C17.46 12.7499 17.77 13.11 17.74 13.53C17.5 16.5 14.98 18.8199 12 18.8199Z" fill="#292D32"/>
</svg>

<svg viewBox="0 0 24 24" fill="none" xmlns="http://www.w3.org/2000/svg" height="1em" width="1em">
  <path d="M12 22.75C6.07 22.75 1.25 17.93 1.25 12S6.07 1.25 12 1.25 22.75 6.07 22.75 12 17.93 22.75 12 22.75Zm0-20C6.9 2.75 2.75 6.9 2.75 12S6.9 21.25 12 21.25s9.25-4.15 9.25-9.25S17.1 2.75 12 2.75Z" fill="#292D32"/>
  <path d="M12 15.63c-1.32 0-2.4-1.08-2.4-2.4v-2.47c0-1.32 1.08-2.4 2.4-2.4 1.32 0 2.4 1.08 2.4 2.4v2.47a2.4 2.4 0 0 1-2.4 2.4Zm0-5.76c-.49 0-.9.4-.9.9v2.47c0 .5.4.9.9.9s.9-.4.9-.9v-2.47c0-.5-.41-.9-.9-.9Z" fill="#292D32"/>
  <path d="M12 18.82c-3.17 0-5.75-2.58-5.75-5.75v-2.14c0-3.17 2.58-5.75 5.75-5.75 2.96 0 5.42 2.22 5.72 5.16a.75.75 0 0 1-.67.82.744.744 0 0 1-.82-.67A4.236 4.236 0 0 0 12 6.68a4.26 4.26 0 0 0-4.25 4.25v2.14A4.26 4.26 0 0 0 12 17.32c2.2 0 4.06-1.72 4.24-3.91a.752.752 0 1 1 1.5.12c-.24 2.97-2.76 5.29-5.74 5.29Z" fill="#292D32"/>
</svg>
